__todo__/swagger.svg

<svg height="256" preserveAspectRatio="xMidYMid" viewBox="0 0 256 256" width="256" xmlns="http://www.w3.org/2000/svg"><path d="m127.998721 249.895198c-67.2142325 0-121.89903583-54.679687-121.89903583-121.896477 0-67.2167911 54.68480333-121.89647723 121.89903583-121.89647723 67.214232 0 121.899035 54.68480333 121.899035 121.89903523 0 67.214232-54.684803 121.893919-121.899035 121.893919z" fill="#85ea2d"/><g fill="#173647"><path d="m127.998721 12.2019289c63.954585 0 115.796791 51.8422068 115.796791 115.7967921 0 63.952026-51.842206 115.796791-115.796791 115.796791-63.9520267 0-115.7967921-51.844765-115.7967921-115.796791 0-63.9520267 51.8447654-115.7967921 115.7967921-115.7967921m0-12.2019289c-70.578782 0-127.998721 57.419939-127.998721 127.998721 0 70.578781 57.419939 127.99872 127.998721 127.99872 70.578781 0 128.001279-57.419939 128.001279-127.99872 0-70.578782-57.422498-127.998721-128.001279-127.998721z"/><path d="m80.598231 86.6185998c-.3940233 4.3803108.1458398 8.90902-.1458398 13.3379441-.34541 4.4314831-.8878317 8.8117931-1.7731048 13.1921041-1.2306831 6.250642-5.1197441 10.976363-10.4825546 14.914038 10.4364999 6.793063 11.6160112 17.324231 12.3042726 28.006356.3454101 5.759392.1970117 11.567398.7880466 17.275618.4426366 4.428925 2.1645695 5.562381 6.7444506 5.708221 1.8703313.048613 3.7867173 0 5.956404 0v13.683354c-13.5349558 2.312968-24.7083305-1.524921-27.4664935-12.992534-.8878317-4.183299-1.4788666-8.466384-1.6733197-12.798081-.2967967-4.577323.1944531-9.154645-.1483983-13.731968-.9850582-12.552456-2.6097647-16.784368-14.6172405-17.375403v-15.602299c.8852731-.197011 1.7219329-.34541 2.607206-.442636 6.5960522-.34541 9.4002698-2.36414 10.8279646-8.860407.6908201-3.640878 1.0848433-7.332927 1.2306831-11.0735896.4938084-7.1359153.2967968-14.4202289 1.5249213-21.5075309 1.721933-10.1883164 8.023747-15.1110489 18.5088602-15.7020838 2.952616-.1483984 5.9564039 0 9.3516565 0v13.9801509c-1.4276947.0997851-2.6583779.2942381-3.9376742.2942381-8.5149968-.2967967-8.9601919 2.6072061-9.5998401 9.6945081zm16.3903453 32.3866672h-.1970117c-4.9227325-.245625-9.1546449 3.592264-9.4028284 8.514997-.2456249 4.971346 3.5922642 9.205817 8.5149967 9.448883h.591035c4.8741191.296797 9.0548601-3.446424 9.3516561-8.317985v-.49125c.099786-4.971346-3.886502-9.05486-8.8578477-9.154645zm30.8617457 0c-4.774334-.148398-8.76318 3.592264-8.90902 8.317985 0 .296797 0 .542422.051172.83666 0 5.365369 3.640878 8.811794 9.154645 8.811794 5.413982 0 8.811794-3.543651 8.811794-9.106032-.051172-5.365369-3.645995-8.90902-9.108591-8.860407zm31.60118 0c-5.019959-.099785-9.205817 3.889061-9.351657 8.90902 0 5.019959 4.034901 9.05486 9.05486 9.05486h.099785c4.528709.788047 9.106032-3.592264 9.402828-8.857848.243067-4.874119-4.185857-9.106032-9.205816-9.106032zm43.36303.736875c-5.710779-.245625-8.566169-2.16457-9.991305-7.581111-.887831-3.443865-1.427695-7.038688-1.624706-10.582339-.394023-6.5960525-.34541-13.2407179-.788047-19.8367701-1.033671-15.650912-12.352886-21.1135075-28.794403-18.409075v13.5861277c2.607206 0 4.625936 0 6.644666.0486132 3.495037.0486133 6.153415 1.3790815 6.496267 5.2681425.34541 3.543651.34541 7.1359153.69082 10.7307381.69082 7.1384736 1.082284 14.3716156 2.312968 21.4103046 1.084843 5.808005 5.07113 10.139703 10.039918 13.683354-8.70945 5.856619-11.270602 14.223217-11.713238 23.626046-.245625 6.447653-.394023 12.94392-.736875 19.442746-.296797 5.905232-2.361581 7.824177-8.317985 7.972575-1.67332.048613-3.298026.197012-5.168357.296797v13.928979c3.495037 0 6.693278.197012 9.891519 0 9.942692-.591035 15.947709-5.413982 17.917826-15.062436.836659-5.316755 1.327909-10.679566 1.476308-16.044935.342851-4.922732.296796-9.894078.788046-14.765639.736875-7.629723 4.231913-10.779351 11.861636-11.270601.739434-.099785 1.427695-.245625 2.118515-.49125v-15.604857c-1.281855-.148399-2.169687-.294238-3.103573-.34541z"/></g></svg>

<?xml version="1.0" encoding="UTF-8"?>
<svg width="256px" height="256px" viewBox="0 0 256 256" version="1.1" xmlns="http://www.w3.org/2000/svg" preserveAspectRatio="xMidYMid">
    <title>Swagger</title>
    <g>
        <path d="M127.998721,249.895198 C60.7844885,249.895198 6.09968517,195.215511 6.09968517,127.998721 C6.09968517,60.7819299 60.7844885,6.10224377 127.998721,6.10224377 C195.212953,6.10224377 249.897756,60.7870471 249.897756,128.001279 C249.897756,195.215511 195.212953,249.895198 127.998721,249.895198 Z" fill="#85EA2D"></path>
        <path d="M127.998721,12.2019289 C191.953306,12.2019289 243.795512,64.0441357 243.795512,127.998721 C243.795512,191.950747 191.953306,243.795512 127.998721,243.795512 C64.0466943,243.795512 12.2019289,191.950747 12.2019289,127.998721 C12.2019289,64.0466943 64.0466943,12.2019289 127.998721,12.2019289 M127.998721,0 C57.419939,0 1.45439161e-13,57.419939 1.45439161e-13,127.998721 C1.45439161e-13,198.577502 57.419939,255.997441 127.998721,255.997441 C198.577502,255.997441 256,198.577502 256,127.998721 C256,57.419939 198.577502,0 127.998721,0 L127.998721,0 Z" fill="#173647"></path>
        <path d="M80.598231,86.6185998 C80.2042077,90.9989106 80.7440708,95.5276198 80.4523912,99.9565439 C80.1069812,104.388027 79.5645595,108.768337 78.6792864,113.148648 C77.4486033,119.39929 73.5595423,124.125011 68.1967318,128.062686 C78.6332317,134.855749 79.812743,145.386917 80.5010044,156.069042 C80.8464145,161.828434 80.6980161,167.63644 81.289051,173.34466 C81.7316876,177.773585 83.4536205,178.907041 88.0335016,179.052881 C89.9038329,179.101494 91.8202189,179.052881 93.9899056,179.052881 L93.9899056,192.736235 C80.4549498,195.049203 69.2815751,191.211314 66.5234121,179.743701 C65.6355804,175.560402 65.0445455,171.277317 64.8500924,166.94562 C64.5532957,162.368297 65.0445455,157.790975 64.7016941,153.213652 C63.7166359,140.661196 62.0919294,136.429284 50.0844536,135.838249 L50.0844536,120.23595 C50.9697267,120.038939 51.8063865,119.89054 52.6916596,119.793314 C59.2877118,119.447904 62.0919294,117.429174 63.5196242,110.932907 C64.2104443,107.292029 64.6044675,103.59998 64.7503073,99.8593174 C65.2441157,92.7234021 65.0471041,85.4390885 66.2752286,78.3517865 C67.9971616,68.1634701 74.2989756,63.2407376 84.7840888,62.6497027 C87.7367048,62.5013043 90.7404927,62.6497027 94.1357453,62.6497027 L94.1357453,76.6298536 C92.7080506,76.7296387 91.4773674,76.9240917 90.1980711,76.9240917 C81.6830743,76.627295 81.2378792,79.5312978 80.598231,86.6185998 Z M96.9885763,119.005267 L96.7915646,119.005267 C91.8688321,118.759642 87.6369197,122.597531 87.3887362,127.520264 C87.1431113,132.49161 90.9810004,136.726081 95.9037329,136.969147 L96.4947679,136.969147 C101.368887,137.265944 105.549628,133.522723 105.846424,128.651162 L105.846424,128.159912 C105.94621,123.188566 101.959922,119.105052 96.9885763,119.005267 Z M127.850322,119.005267 C123.075988,118.856869 119.087142,122.597531 118.941302,127.323252 C118.941302,127.620049 118.941302,127.865674 118.992474,128.159912 C118.992474,133.525281 122.633352,136.971706 128.147119,136.971706 C133.561101,136.971706 136.958913,133.428055 136.958913,127.865674 C136.907741,122.500305 133.312918,118.956654 127.850322,119.005267 Z M159.451502,119.005267 C154.431543,118.905482 150.245685,122.894328 150.099845,127.914287 C150.099845,132.934246 154.134746,136.969147 159.154705,136.969147 L159.25449,136.969147 C163.783199,137.757194 168.360522,133.376883 168.657318,128.111299 C168.900385,123.23718 164.471461,119.005267 159.451502,119.005267 Z M202.814532,119.742142 C197.103753,119.496517 194.248363,117.577572 192.823227,112.161031 C191.935396,108.717166 191.395532,105.122343 191.198521,101.578692 C190.804498,94.9826395 190.853111,88.3379741 190.410474,81.7419219 C189.376803,66.0910099 178.057588,60.6284144 161.616071,63.3328469 L161.616071,76.9189746 C164.223277,76.9189746 166.242007,76.9189746 168.260737,76.9675878 C171.755774,77.0162011 174.414152,78.3466693 174.757004,82.2357303 C175.102414,85.7793813 175.102414,89.3716456 175.447824,92.9664684 C176.138644,100.104942 176.530108,107.338084 177.760792,114.376773 C178.845635,120.184778 182.831922,124.516476 187.80071,128.060127 C179.09126,133.916746 176.530108,142.283344 176.087472,151.686173 C175.841847,158.133826 175.693449,164.630093 175.350597,171.128919 C175.0538,177.034151 172.989016,178.953096 167.032612,179.101494 C165.359292,179.150107 163.734586,179.298506 161.864255,179.398291 L161.864255,193.32727 C165.359292,193.32727 168.557533,193.524282 171.755774,193.32727 C181.698466,192.736235 187.703483,187.913288 189.6736,178.264834 C190.510259,172.948079 191.001509,167.585268 191.149908,162.219899 C191.492759,157.297167 191.446704,152.325821 191.937954,147.45426 C192.674829,139.824537 196.169867,136.674909 203.79959,136.183659 C204.539024,136.083874 205.227285,135.938034 205.918105,135.692409 L205.918105,120.087552 C204.63625,119.939153 203.748418,119.793314 202.814532,119.742142 Z" fill="#173647"></path>
    </g>
</svg>
